assets/img/icons/star.svg

<svg width="21" height="20" viewBox="0 0 21 20" fill="none" xmlns="http://www.w3.org/2000/svg">
<path d="M9.16463 0.593004C9.51699 -0.197484 10.639 -0.197484 10.9914 0.593004L13.1583 5.45429C13.3036 5.78032 13.6117 6.00416 13.9667 6.04163L19.2597 6.60027C20.1203 6.69111 20.4671 7.75821 19.8242 8.3376L15.8704 11.9007C15.6053 12.1396 15.4876 12.5018 15.5616 12.851L16.6659 18.0576C16.8455 18.9042 15.9378 19.5637 15.1881 19.1313L10.5776 16.4721C10.2684 16.2938 9.88759 16.2938 9.57838 16.4721L4.96792 19.1313C4.21821 19.5637 3.31048 18.9042 3.49006 18.0576L4.59437 12.851C4.66844 12.5018 4.55075 12.1396 4.28559 11.9007L0.331849 8.3376C-0.311064 7.75821 0.0356584 6.69111 0.896342 6.60027L6.18931 6.04163C6.54429 6.00416 6.85239 5.78032 6.99772 5.45429L9.16463 0.593004Z" fill="#BA1A1A"/>
</svg>

<svg width="21" height="20" fill="none" xmlns="http://www.w3.org/2000/svg"><path d="M9.165.593c.352-.79 1.474-.79 1.826 0l2.167 4.861a1 1 0 0 0 .809.588l5.293.558c.86.091 1.207 1.158.564 1.738L15.87 11.9a1 1 0 0 0-.308.95l1.104 5.207c.18.846-.728 1.506-1.478 1.073l-4.61-2.659a1 1 0 0 0-1 0l-4.61 2.66c-.75.432-1.658-.228-1.478-1.074l1.104-5.207a1 1 0 0 0-.308-.95L.332 8.338C-.311 7.758.036 6.69.896 6.6l5.293-.558a1 1 0 0 0 .809-.588L9.165.593Z" fill="#BA1A1A"/></svg>
